X:1
T:The Sea Shore (The Swim Swom Bonny)
M:6/8
L:1/8
K:F
 D| FGA FGA| F2 D C2 z| d2 d cde| d2- c- A2 B| c2 c c2 A| c2 A c2 D|\
 F3 G3| AGA d3/2 c/2 A| F2 GA-G-A| D2 E D2||
